src/images/alertCircleRed.svg

<svg width="10" height="10" viewBox="0 0 10 10" fill="none" xmlns="http://www.w3.org/2000/svg">
<path d="M5 0C4.01109 0 3.0444 0.293245 2.22215 0.842652C1.3999 1.39206 0.759043 2.17295 0.380604 3.08658C0.00216642 4.00021 -0.0968502 5.00554 0.0960758 5.97545C0.289002 6.94535 0.765206 7.83627 1.46447 8.53553C2.16373 9.23479 3.05464 9.711 4.02455 9.90392C4.99445 10.0968 5.99979 9.99783 6.91342 9.6194C7.82705 9.24096 8.60794 8.60009 9.15735 7.77785C9.70675 6.9556 10 5.9889 10 5C10 3.67392 9.47321 2.40215 8.53553 1.46447C7.59785 0.526784 6.32608 0 5 0V0ZM5 9.342C4.14123 9.342 3.30175 9.08734 2.58772 8.61024C1.87368 8.13313 1.31715 7.45501 0.988517 6.66161C0.659881 5.86821 0.573895 4.99518 0.741432 4.15292C0.908969 3.31065 1.3225 2.53698 1.92974 1.92974C2.53698 1.3225 3.31065 0.908967 4.15292 0.74143C4.99518 0.573893 5.86822 0.659879 6.66161 0.988515C7.45501 1.31715 8.13314 1.87368 8.61024 2.58771C9.08735 3.30175 9.342 4.14123 9.342 5C9.34094 6.15124 8.88314 7.25503 8.06909 8.06909C7.25503 8.88314 6.15125 9.34094 5 9.342V9.342Z" fill="#DE5959"/>
<path d="M5.57761 6.93784C5.56048 6.90255 5.54132 6.86825 5.52021 6.83511C5.50142 6.80738 5.4722 6.77862 5.45341 6.75088C5.42391 6.72054 5.39216 6.69239 5.35842 6.66666C5.3244 6.64043 5.28535 6.62121 5.2436 6.61017C5.20418 6.59192 5.16238 6.57912 5.11939 6.57216C5.07843 6.56475 5.03679 6.56165 4.99517 6.56291C4.95354 6.5613 4.91186 6.56441 4.87095 6.57216C4.83428 6.57912 4.79903 6.59197 4.76658 6.61017L4.75719 6.61017C4.71692 6.62851 4.67848 6.65052 4.64237 6.6759C4.61153 6.69822 4.58287 6.72332 4.55678 6.75088L4.54738 6.76013C4.5222 6.78585 4.49981 6.81407 4.48058 6.84436C4.45902 6.87244 4.44275 6.9041 4.43256 6.93784C4.43256 6.94708 4.43257 6.94708 4.42318 6.95632C4.40598 6.99562 4.39303 7.03658 4.38456 7.07855C4.37181 7.15956 4.37181 7.24202 4.38456 7.32302C4.39439 7.36464 4.4073 7.40549 4.42318 7.44525C4.45003 7.50848 4.489 7.56603 4.53798 7.61474L4.55678 7.63322C4.58654 7.66046 4.61829 7.68553 4.65177 7.70821C4.69039 7.7267 4.71858 7.74622 4.75615 7.76471C4.79285 7.78159 4.83135 7.79434 4.87095 7.80271C4.91191 7.81013 4.95355 7.81323 4.99517 7.81195C5.07758 7.81577 5.15968 7.79954 5.23421 7.76471L5.2436 7.76471C5.27946 7.74785 5.3143 7.72898 5.34797 7.70821C5.38145 7.68553 5.4132 7.66046 5.44296 7.63322C5.47096 7.60753 5.49646 7.57933 5.51916 7.54899C5.54027 7.51586 5.55944 7.48157 5.57657 7.44628C5.59374 7.41017 5.6067 7.37227 5.6152 7.33329C5.62273 7.29299 5.62587 7.25202 5.62458 7.21106C5.62622 7.1701 5.62308 7.12908 5.6152 7.08882C5.60737 7.03747 5.59478 6.98694 5.57761 6.93784Z" fill="#DE5959"/>
<rect x="4.375" y="1.875" width="1.25" height="4.375" rx="0.625" fill="#DE5959"/>
</svg>

<svg width="10" height="10" viewBox="0 0 10 10" fill="none" xmlns="http://www.w3.org/2000/svg"><path d="M5 0a5 5 0 100 10A5 5 0 005 0zm0 9.342A4.342 4.342 0 115 .658a4.342 4.342 0 010 8.684z" fill="#DE5959"/><path d="M5.578 6.938a1.021 1.021 0 00-.058-.103c-.019-.028-.048-.056-.067-.084a.859.859 0 00-.095-.084.323.323 0 00-.114-.057.596.596 0 00-.248-.047.553.553 0 00-.125.01.345.345 0 00-.104.037h-.01a.612.612 0 00-.2.14l-.01.01a.515.515 0 00-.066.084.292.292 0 00-.048.094c0 .01 0 .01-.01.018a.602.602 0 00-.038.367.544.544 0 00.153.292l.019.018a.83.83 0 00.095.075c.038.019.067.038.104.057a.544.544 0 00.24.047.51.51 0 00.238-.047h.01c.035-.017.07-.036.104-.057a.83.83 0 00.095-.075.611.611 0 00.076-.084 1.02 1.02 0 00.058-.103.522.522 0 00.038-.113.568.568 0 00.01-.122.842.842 0 00-.047-.273z" fill="#DE5959"/><rect x="4.375" y="1.875" width="1.25" height="4.375" rx=".625" fill="#DE5959"/></svg>
